X:0925
M:6/8
L:1/8
Q:3/8=120
P:ABA % Aird uses a da capo
K:G
P:A
P:B
eee efg|d2B A2G|e2e efg|f3 d3 |eee efg|d2B B2d|e2d c2B|B3 A3:|

